X:1
T:Title
%%score { ( 1 2 4 ) | ( 3 5 ) }
L:1/8
Q:1/4=100
M:4/4
K:G
V:1 treble nm="Grand Piano"
V:2 treble 
V:4 treble 
V:3 bass 
V:5 bass 
V:1
 z4 z2 B2 | d4 B4 | c2 [Fc]2 [FB]2 [EB]2 | A4 z4 | z4 z2 B2 | d4 B4 | [Ec]2 c2 B2 [Ec]2 | A4 z4 | %8
 [DA]2 [EA]2 [^DB]2 F2 | G4 z4 | .[B,EG]2 [DFA]2 [DGB]2 [EGc]2 | [EG]2 z2 z4 | [CEG]4 [B,DG]4 |] %13
V:2
 G2 GA [DB]2 z G | z4 z2 G2 | x8 | z2 ^D2 G4 | G2 GA [DB]2 z G | G2 F2 z2 GF | x8 | E2 DC [B,G]4 | %8
 x8 | z2 E2 [B,^DF]4 | x8 | A2- [FA]2 [B,DG]4 | x8 |] %13
V:3
 [G,B,D]2 [E,A,E]2 [B,,F,]2 .[G,D]2 | A,2[K:treble] D2 [DG]2 z2 | %2
 [A,EG]2[K:bass] [D,D]2 [G,D]2 [C,C]2 | [F,CE]2 [B,,B,]2 [E,B,E]4 | %4
 [G,B,D]2 [E,G,E]2 [B,,F,]2 .[G,D]2 | z4 D2 z2 | [A,,G,]2 [D,F,D]2 [G,D]2 [C,G,]2 | G,2 z2 z4 | %8
 [D,F,]2 [C,F,]2 [B,,F,]2 [^D,A,B,]2 | B,2 z A, B,,4 | z C D,2 G,2 C,2 | z2 DC G,4 | C,4 G,4 |] %13
V:4
 x8 | G2 F2 z2 z F | x8 | x8 | x8 | x8 | x8 | x8 | x8 | x8 | x8 | x8 | x8 |] %13
V:5
 x8 | D,4[K:treble] G,4 | x2[K:bass] x6 | x8 | x8 | [D,A,]4 G,2- [G,,G,]2 | x8 | %7
 D,2- [D,F,]2 [G,,G,]4 | x8 | [E,G,]4 z4 | E,2 z2 z4 | D,4 z4 | x8 |] %13

